X:1
T:Ships are Sailing -- Reel
R:reel
B:Ryan's Mammoth Collection
Z: Contributed by Ray Davies,  ray:davies99.freeserve.co.uk
M:C|
L:1/8
K:Edor
vBA"Segno"|Beed BcdB|A2FD ADFD|E^DEF GFGA|Beef gfed|
Beed BcdB|A2FD ADFD|E^DEF GFGA|Bee^d e2H:|
u(ef)|gfga bgeg|fefg afdf|gfga bgeg|afdf e2(ef)|
gfga bgeg|fefg afdf|ggbg ffaf|egfa gfed"Segno"||
